!!!OTL: Mein Lieb ist eine Alpnerin (3-45), S. 118f
!!!id: K1178
**kern
*clefG2
*k[]
*C:
{8g
=1
4e
8g
4cc
8g
=2
4b
8a
4d
8d
=3
4b
8a
4g
8f
=4
4.e}
4r
=5
{8g
=6
4e
8g
4cc
8g
=7
4b
8a
4d
8d
=8
4b
8a
4g
8B
=9
4.c}
4r
=10
{8e
=11
4d
8d
4e
8f#
=12
4g
8a
4b
8b
=13
4dd
8a
4cc
8b
=14
4.g}
4r
=15
{8g
=16
4e
8g
4cc
8g
=17
4b
8a
4d
8d
=18
4b
8a
4g
8f
=19
4.e}
4r
=20
{8g
=21
4e
8g
4cc
8g
=22
4b
8a
4d
8d
=23
4b
8a
4g
8B
=24
4.c}
4r
==
*-
!!!minrhy: 8
!!!meters: 6/8 ]  ZZ[5
!!!cut: Mein Lieb ist eine Alpnerin (3-45), S. 118f
!!!reg: Luxemburg
!!!trd: KINTZELE, Guillaume: An der Ucht, Bd. 3 Luxemburg 1928
!!!rhy1: X  X_XX_X  X_XX_X  X_XX_X  X_.0_
!!!rhy2: X  X_XX_X  X_XX_X  X_XX_X  X_.0_
!!!key: K1178  08  C 6/8 ]  ZZ[5
!!!mod: ACHTTONSKALA DUR ?]  AMBITUS[10b
!!!kad: 31531
!!!akz: 3+172753_3+172751_2357+2+15_3+172753_3+172751_
!!!fot: 'a__aw_b__a__aw_
!!!for: 'a__a__a__a__a__
!!!fok: 'Sd_Sd_^a_Sd_Sd_
!! PHRAS[AUFTAKTIG]
!!!fkt: Liebe, Verehrung
!!!bem: in der Quelle mit einer 2. Stimme versehen
!! KINTZELE
!! PR[30] 2K[6] 2G[6] 3K[6] 3G[4] 4A[5] 4Ü[0] 5A[4] 6K[0] 6G[0]
!! 7K[1] 7G[0] 8A[0] MEHR[0] SI[34] ABS[77] SR[13] SP[21]
!! ST[17] 2k[5] 2g[14] 3k[8] 3g[1] 4d[4] 4ü[1] 5d[1] 6k[0] 6g[1]
!! 7k[0] 7g[0] 8d[0] mehr[0] si[36] dm[-2] sr[19] sp[17]
!! 1F[4] 2F[74] 3F[17] 4F[1] LF[0] 2P[1] 3P[2] 4P[0] TRI[0] DF[6] AB[82]
!! TF[0] U3K[0] U3[0] U4[0] U4Ü[0] U5[0] U6K[0] U6[0] U7K[0] U7[0]
!! N1[5] N2K[0] N2[3] N3K[0] N3[15] N4[8] N4Ü[0] N5[35] N6K[0] N6[6]
!!!n7k: 0] N7[12] O1[9] O2K[0] O2[5] O3K[0] O3[1] HÖ[1
